usr/share/icons/biglinux-icons-material-dark/symbolic/status/media-playlist-no-repeat-symbolic-rtl.svg

<svg width="16" height="16" version="1.1" xmlns="http://www.w3.org/2000/svg">
 <path d="m11 0v2h1.006c1.258 0.015 2.179-0.03 2.932 0.385 0.376 0.207 0.673 0.56 0.838 0.998 0.164 0.438 0.224 0.96 0.224 1.617v6c0 0.658-0.06 1.179-0.225 1.617a1.88 1.88 0 0 1-0.837 0.998c-0.753 0.416-1.674 0.37-2.932 0.385h-8.012c-1.258-0.015-2.179 0.03-2.932-0.385a1.88 1.88 0 0 1-0.837-0.998c-0.165-0.437-0.225-0.96-0.225-1.617v-6c0-0.658 0.06-1.179 0.225-1.617a1.88 1.88 0 0 1 0.838-0.998c0.752-0.416 1.673-0.37 2.931-0.385h1.006v1h-1c-1.258 0.015-2.09 0.06-2.455 0.262-0.183 0.1-0.287 0.212-0.385 0.472-0.097 0.26-0.16 0.674-0.16 1.266v6c0 0.592 0.063 1.006 0.16 1.266 0.098 0.26 0.202 0.371 0.385 0.472 0.366 0.202 1.197 0.247 2.455 0.262h8c1.259-0.015 2.087-0.06 2.453-0.262 0.184-0.1 0.29-0.212 0.387-0.472s0.16-0.674 0.16-1.266v-6c0-0.592-0.063-1.006-0.16-1.266-0.098-0.26-0.203-0.371-0.387-0.472-0.366-0.202-1.193-0.247-2.453-0.262h-1.002v2a36.954 36.954 0 0 1-2.322-1.166 43.6 43.6 0 0 1-2.258-1.334c0.725-0.45 1.477-0.89 2.258-1.32 0.788-0.43 1.563-0.823 2.324-1.18z" color="#000000" fill="#dedede" font-family="sans-serif" font-weight="400" opacity=".5" overflow="visible" style="font-feature-settings:normal;font-variant-alternates:normal;font-variant-caps:normal;font-variant-ligatures:normal;font-variant-numeric:normal;font-variant-position:normal;isolation:auto;mix-blend-mode:normal;shape-padding:0;text-decoration-color:#000000;text-decoration-line:none;text-decoration-style:solid;text-indent:0;text-orientation:mixed;text-transform:none"/>
</svg>

<svg xmlns="http://www.w3.org/2000/svg" width="16" height="16">
<path fill="#363636" d="M11 0v2h1.006c1.258.015 2.179-.03 2.932.385.376.207.673.56.838.998S16 4.343 16 5v6c0 .658-.06 1.179-.225 1.617a1.88 1.88 0 0 1-.837.998c-.753.416-1.674.37-2.932.385H3.994c-1.258-.015-2.179.03-2.932-.385a1.88 1.88 0 0 1-.837-.998C.06 12.18 0 11.657 0 11V5c0-.658.06-1.179.225-1.617a1.88 1.88 0 0 1 .838-.998c.752-.416 1.673-.37 2.931-.385H5v1H4c-1.258.015-2.09.06-2.455.262-.183.1-.287.212-.385.472C1.063 3.994 1 4.408 1 5v6c0 .592.063 1.006.16 1.266.098.26.202.371.385.472.366.202 1.197.247 2.455.262h8c1.259-.015 2.087-.06 2.453-.262.184-.1.29-.212.387-.472S15 11.592 15 11V5c0-.592-.063-1.006-.16-1.266-.098-.26-.203-.371-.387-.472C14.087 3.06 13.26 3.015 12 3h-1.002v2a37 37 0 0 1-2.322-1.166A44 44 0 0 1 6.418 2.5q1.087-.675 2.258-1.32Q9.858.535 11 0" color="#000" font-family="sans-serif" font-weight="400" opacity=".5" overflow="visible" style="font-feature-settings:normal;font-variant-alternates:normal;font-variant-caps:normal;font-variant-ligatures:normal;font-variant-numeric:normal;font-variant-position:normal;isolation:auto;mix-blend-mode:normal;shape-padding:0;text-decoration-color:#000;text-decoration-line:none;text-decoration-style:solid;text-indent:0;text-orientation:mixed;text-transform:none"/>
</svg>
